X:107
T: FROEHLICH UND WOHLGEMUT
N: F0224
O: Europa, Mitteleuropa, Deutschland
R: Abschieds -, Wander - Lied
M: 3/8
L: 1/16
K: G
 | B3AG2 | G2D2D2 |
zDGBd2 | zdBGD2 |
c3BA2 | A2D2D2 |
zDFAd2 | zdAFD2 |
B3cd2 | e2A2A2 |
c2A2F2 | G2B2G2 |
zeeee2 | zdddd2 |
z2F2F2 | G4z2

@@@ Tune index: 5538
